X: 10753
T: Dr. Gordon Stables'
R: reel
M: 4/4
K: Dmajor
|:A,|(DF)Ac {c}d2.A.d|BAGF EDCg|fedc BAGF|GEAG FDD:|
g|fgaf gabg|efge fgaf|defg abc'd'|geag fd[Fd]g|
fgaf gabg|efge fgag|({DA}f)edc BAGF|GEAG FDD|
|:A,|(DF).A.c {c}d2.A.d|BAGF EDCg|(3fga (3gfe (3dcB (3AGF|(3EFG (3ABc dDD:|
f|(DA).f.A (G,B).g.B|(A,c).g.c (DA).f.E|defg abc'd'|geag fddf|
(3(DAf) (3fAD (3(G,Bg) (3gBG,|(3(A,cg) (3gcA, (3(DAf) (3faD|({DA}f)edc BAGF|GEAG FD[A,D]|

